24x24/apps/eiskaltdcpp.svg

<svg xmlns="http://www.w3.org/2000/svg" width="24" height="24" version="1">
 <g transform="translate(1,1)">
  <rect fill="#d53068" width="20" height="20" x="-21" y="-21" rx="10" ry="10" transform="matrix(0,-1,-1,0,0,0)"/>
  <path opacity=".2" d="m12.906 6.5737a2 2 0 0 0 -1.6377 0.99805 2 2 0 0 0 -0.19336 1.5342l-2.648 1.5291a2 2 0 0 0 -1.427 -0.599 2 2 0 0 0 -2 2 2 2 0 0 0 2 2 2 2 0 0 0 1.4258 -0.5996l2.6474 1.5293a2 2 0 0 0 0.194 1.534 2 2 0 0 0 2.7325 0.7325 2 2 0 0 0 0.7325 -2.7325 2 2 0 0 0 -2.7325 -0.7315 2 2 0 0 0 -0.427 0.331l-2.648-1.5285a2 2 0 0 0 0.075 -0.535 2 2 0 0 0 -0.073 -0.535l2.6474-1.5283a2 2 0 0 0 0.4255 0.331 2 2 0 0 0 2.7325 -0.7315 2 2 0 0 0 -0.7325 -2.7325 2 2 0 0 0 -1.0945 -0.2655z"/>
  <path fill="#fff" d="m12.906 6.0737a2 2 0 0 0 -1.6377 0.99805 2 2 0 0 0 -0.19336 1.5342l-2.648 1.5291a2 2 0 0 0 -1.427 -0.5992 2 2 0 0 0 -2 2 2 2 0 0 0 2 2 2 2 0 0 0 1.4258 -0.5996l2.6474 1.5293a2 2 0 0 0 0.194 1.534 2 2 0 0 0 2.7325 0.7325 2 2 0 0 0 0.7325 -2.7325 2 2 0 0 0 -2.7325 -0.7315 2 2 0 0 0 -0.427 0.331l-2.648-1.5285a2 2 0 0 0 0.075 -0.535 2 2 0 0 0 -0.073 -0.535l2.6474-1.5283a2 2 0 0 0 0.4255 0.331 2 2 0 0 0 2.7325 -0.7315 2 2 0 0 0 -0.7325 -2.7325 2 2 0 0 0 -1.0945 -0.2655z"/>
  <path fill="#fff" opacity=".2" d="m11 1c-5.54 0-10 4.46-10 10 0 0.084 0.004 0.166 0.0058 0.25 0.1324-5.423 4.5382-9.75 9.9942-9.75 5.4558 0 9.862 4.327 9.994 9.75 0.002-0.08343 0.0059-0.16606 0.0059-0.25 0-5.54-4.46-10-10-10z"/>
  <path opacity=".2" d="m1.0058 11.25c-0.002 0.084-0.0058 0.166-0.0058 0.25 0 5.54 4.46 10 10 10s10-4.46 10-10c0-0.084-0.004-0.1665-0.006-0.25-0.132 5.423-4.538 9.75-9.994 9.75s-9.862-4.327-9.994-9.75z"/>
 </g>
</svg>

<svg xmlns="http://www.w3.org/2000/svg" width="24" height="24" version="1"><g transform="translate(1 1)"><rect fill="#d53068" width="20" height="20" x="-21" y="-21" rx="10" ry="10" transform="matrix(0 -1 -1 0 0 0)"/><path opacity=".2" d="M12.906 6.574a2 2 0 0 0-1.638.998 2 2 0 0 0-.193 1.534l-2.648 1.529A2 2 0 0 0 7 10.036a2 2 0 0 0-2 2 2 2 0 0 0 2 2 2 2 0 0 0 1.426-.6l2.647 1.53a2 2 0 0 0 .194 1.534 2 2 0 0 0 2.733.732 2 2 0 0 0 .732-2.732A2 2 0 0 0 12 13.768a2 2 0 0 0-.427.331l-2.648-1.528A2 2 0 0 0 9 12.036a2 2 0 0 0-.073-.535l2.647-1.529a2 2 0 0 0 .426.331 2 2 0 0 0 2.732-.731A2 2 0 0 0 14 6.839a2 2 0 0 0-1.095-.265z"/><path fill="#fff" d="M12.906 6.074a2 2 0 0 0-1.638.998 2 2 0 0 0-.193 1.534l-2.648 1.529A2 2 0 0 0 7 9.535a2 2 0 0 0-2 2 2 2 0 0 0 2 2 2 2 0 0 0 1.426-.599l2.647 1.53A2 2 0 0 0 11.267 16a2 2 0 0 0 2.733.732A2 2 0 0 0 14.732 14 2 2 0 0 0 12 13.268a2 2 0 0 0-.427.331l-2.648-1.528A2 2 0 0 0 9 11.536 2 2 0 0 0 8.927 11l2.647-1.529a2 2 0 0 0 .426.331 2 2 0 0 0 2.732-.731A2 2 0 0 0 14 6.339a2 2 0 0 0-1.095-.265z"/><path fill="#fff" opacity=".2" d="M11 1C5.46 1 1 5.46 1 11c0 .084.004.166.006.25A9.976 9.976 0 0 1 11 1.5a9.976 9.976 0 0 1 9.994 9.75c.002-.083.006-.166.006-.25 0-5.54-4.46-10-10-10z"/><path opacity=".2" d="M1.006 11.25c-.002.084-.006.166-.006.25 0 5.54 4.46 10 10 10s10-4.46 10-10c0-.084-.004-.167-.006-.25C20.862 16.673 16.456 21 11 21s-9.862-4.327-9.994-9.75z"/></g></svg>
